!!!!SEGMENT: Arc2008-Filiae_Jerusalem.krn
!!!id: Arc2008
!!!AGN: Motet
!!!voices: 4
!!!COM: Jacques Arcadelt
!!!OTL: Filiae Jerusalem
**kern	**kern	**kern	**kern
*part4	*part3	*part2	*part1
*staff4	*staff3	*staff2	*staff1
*I"Bassus	*I"Tenor	*I"Altus	*I"Superius
*I'B	*I'T	*I'A	*I'S
*clefF4	*clefGv2	*clefG2	*clefG2
*k[]	*k[]	*k[]	*k[]
*C:	*C:	*C:	*C:
*M2/1	*M2/1	*M2/1	*M2/1
*met(C|)	*met(C|)	*met(C|)	*met(C|)
!!section: Prima pars: Filiae Jerusalem
!!!OMD: Prima pars: Filiae Jerusalem
=1	=1	=1	=1
1.A	0r	0r	0r
2D	.	.	.
=2	=2	=2	=2
1D	0r	1r	0r
2.A	.	[1e	.
4G	.	.	.
=3	=3	=3	=3
4A	0r	2e]	0r
4B	.	.	.
2.c	.	2A	.
.	.	1A	.
4B	.	.	.
2A	.	.	.
=4	=4	=4	=4
2G	1r	2.e	0r
1A	.	.	.
.	.	4d	.
.	[1e	4e	.
.	.	4f	.
2G	.	[2g	.
=5	=5	=5	=5
1A	2e]	4g]	0r
.	.	4f	.
.	2A	1e	.
1F	1A	.	.
.	.	2d	.
=6	=6	=6	=6
2E	2.e	1c	0r
1A	.	.	.
.	4d	.	.
.	4e	1B	.
.	4f	.	.
2G	2g	.	.
=7	=7	=7	=7
2.A	2f	1c	1.a
.	2.e	.	.
4B	.	.	.
2c	.	2A	.
.	4d	.	.
2d	[2f	[2a	2d
=8	=8	=8	=8
1B	4f]	2a]	1d
.	4e	.	.
.	1d	2g	.
1A	.	2f	2.a
.	2c	2e	.
.	.	.	4g
=9	=9	=9	=9
2r	2.f	2d	4a
.	.	.	4b
2.F	.	2c	2.cc
.	8eL	.	.
.	8dJ	.	.
.	2.c	1f	.
4G	.	.	4b
4A	.	.	2a
4B	4d	.	.
=10	=10	=10	=10
2c	1e	2r	2g
2A	.	2c	1a
2B	1r	2d	.
[2c	.	[2e	2g
=11	=11	=11	=11
4c]	2.A	4e]	2a
4B	.	4d	.
4A	.	4c	2.a
4G	4B	4B	.
1F	2c	2A	.
.	.	.	4b
.	2A	2a	4cc
.	.	.	4dd
=12	=12	=12	=12
2E	2B	2g	2ee
2.F	2.A	1f	2cc
.	.	.	2dd
4E	4B	.	.
2C	2c	2e	2ee
=13	=13	=13	=13
1D	2A	2d	2ff
.	2A	2d	2ff
[1A	2.c	2e	2.ee
.	.	[2a	.
.	4d	.	4dd
=14	=14	=14	=14
1A]	2e	4a]	4cc
.	.	4g	4b
.	2c	2e	2.a
2r	2d	1f	.
.	.	.	4g
2D	2d	.	4f
.	.	.	4e
=15	=15	=15	=15
4D	2.A	1d	2f
4E	.	.	.
4F	.	.	2f
4G	4B	.	.
2A	2c	1r	2e
2F	2d	.	[2a
=16	=16	=16	=16
2G	2B	2r	2a]
2G	2B	2d	2g
1D	2A	4d	2.a
.	.	4e	.
.	2A	4f	.
.	.	4g	8gL
.	.	.	8fJ
=17	=17	=17	=17
2r	4A	4a	1e
.	4B	4g	.
2A	4c	4a	.
.	4d	4b	.
4A	4e	2cc	1r
4B	4d	.	.
4c	4e	2cc	.
4d	4f	.	.
=18	=18	=18	=18
2e	2g	2b	1r
2c	2e	2cc	.
2d	2f	1a	2r
2d	2d	.	2a
=19	=19	=19	=19
1A	1c	2r	4a
.	.	.	4b
.	.	2a	4cc
.	.	.	4dd
1r	2r	2a	2ee
.	2A	2a	2cc
=20	=20	=20	=20
2r	2B	2g	2dd
2D	2A	1a	2dd
4D	2d	.	2.a
4E	.	.	.
4F	2d	4g	.
4G	.	4f	4b
=21	=21	=21	=21
2A	2c	2e	2cc
2F	2d	2f	1a
2G	1B	2d	.
2G	.	2d	2g
=22	=22	=22	=22
2D	4A	2f	2.a
.	4B	.	.
1A	4c	2e	.
.	4d	.	4b
.	4e	2c	2cc
.	4f	.	.
2G	[2g	[2d	[2b
=23	=23	=23	=23
1B-i	4g]	4d]	4b]
.	4f	4e	4a
.	2d	4f	1dd
.	.	4g	.
2.A	2e	1a	.
.	[2f	.	2cc
4G	.	.	.
=24	=24	=24	=24
2F	4f]	1r	1dd
.	4e	.	.
2G	1d	.	.
1E	.	2r	2.g
.	2c#i	2e	.
.	.	.	4a
=25	=25	=25	=25
1D	2d	2f	2b
.	2f	2d	2a
2r	2d	2.f	1a
2D	[2f	.	.
.	.	4g	.
=26	=26	=26	=26
2.F	2f]	2.a	0r
.	4e	.	.
4G	4d	8gL	.
.	.	8fJ	.
2.A	2.c	1e	.
4B	4d	.	.
=27	=27	=27	=27
2c	2e	2r	1r
1d	2f	2d	.
.	2d	2.f	2r
4c	2d	.	2a
4B	.	4g	.
=28	=28	=28	=28
1A	1e	2.a	2.cc
.	.	4b	4dd
1r	1r	2cc	2ee
.	.	2a	2ff
=29	=29	=29	=29
0r	2r	2b	2dd
.	2A	1cc	1ee
.	2.c	.	.
.	.	4b	4dd
.	4d	4a	4cc
=30	=30	=30	=30
1r	2e	2g	2b
.	2A	1a	2a
2r	2d	.	2b
2E	2e	2g	2b
=31	=31	=31	=31
2.F	2A	2a	1a
.	2A	1a	.
4G	.	.	.
2A	2c	.	2r
2B-i	2d	2f	2dd
=32	=32	=32	=32
2G	2.e	2g	2b
1A	.	2e	2cc
.	4d	.	.
.	2c	2f	2a
2G	2B	2d	[2b
=33	=33	=33	=33
2F	2c	2f	4b]
.	.	.	4a
2D	2d	2f	1a
1E	2B	2e	.
.	2B	[2e	2g#i
=34	=34	=34	=34
1A	2A	2e]	[0a
.	1e	2c	.
2r	.	2.c	.
2A	2c	.	.
.	.	4d	.
=35	=35	=35	=35
2A	1c	2e	0a]
2F	.	1f	.
2.F	2r	.	.
.	[2f	4e	.
4G	.	4d	.
=36	=36	=36	=36
4A	2f]	2c	0r
4B	.	.	.
1c	2e	2g	.
.	2e	2g	.
2B	2d	2g	.
=37	=37	=37	=37
2c	2e	1a	1r
2d	2f	.	.
2B	2d	1g	2r
[2c	2e	.	[2ee
=38	=38	=38	=38
4c]	2.A	1.e	2ee]
4B	.	.	.
2.A	.	.	2cc
.	4B	.	.
.	2c	.	2.cc
4G	.	.	.
2F	2A	2f	.
.	.	.	4dd
=39	=39	=39	=39
2E	2G	2g	2ee
2D	1d	2.a	1ff
1A	.	.	.
.	.	4g	.
.	2c	2e	2ee
=40	=40	=40	=40
2r	2d	1f	2ee
2F	2A	.	2dd
2G	2B	1e	2ee
[2A	[2c	.	[2ee
=41	=41	=41	=41
4A]	4c]	2r	2ee]
4B	4d	.	.
4c	4e	2c	2ee
4A	4f	.	.
2B	2g	2d	2dd
[2A	2c	[2e	2cc
=42	=42	=42	=42
2A]	2r	4e]	1b
.	.	4f	.
2G	1d	4g	.
.	.	4e	.
1A	.	2f	2r
.	2c	[2e	[2a
=43	=43	=43	=43
1F	1A	2e]	2a]
.	.	2d	2a
2E	2B	2.e	2g
[2A	[2c	.	2e
.	.	4d	.
=44	=44	=44	=44
2A]	4c]	2c	1f
.	4B	.	.
2D	1A	2d	.
1E	.	1B	1e
.	2G#i	.	.
=45	=45	=45	=45
0r	2A	2c	2r
.	1d	1f	2a
.	.	.	2b
.	2c	2g	[2cc
=46	=46	=46	=46
0r	4A	1a	4cc]
.	4B	.	4dd
.	4c	.	4ee
.	4A	.	4cc
.	2B	2g	2dd
.	2c	2e	[2ee
=47	=47	=47	=47
2r	2d	1f	2ee]
2F	2A	.	2dd
2G	2B	1e	2.ee
[2A	[2c	.	.
.	.	.	4dd
=48	=48	=48	=48
4A]	4c]	2r	1cc
4B	4d	.	.
4c	4e	2c	.
4A	4f	.	.
2B	1g	2d	2b
2c	.	2e	[2ee
=49	=49	=49	=49
2d	2f	2f	4ee]
.	.	.	4dd
2B	2d	2g	1dd
2.A	1e	1a	.
.	.	.	2cc#i
4G	.	.	.
=50	=50	=50	=50
2F	1d	2r	1dd
2G	.	1g	.
1D	2r	.	2r
.	2d	2f	[2dd
=51	=51	=51	=51
0r	2e	2g	2dd]
.	2.f	2.a	2cc
.	.	.	2.dd
.	4e	4g	.
.	[2d	[2f	.
.	.	.	4cc
=52	=52	=52	=52
0r	2d]	2f]	4b
.	.	.	4a
.	2c	2e	2cc
.	2d	2f	2b
.	2c	2e	[2a
=53	=53	=53	=53
2r	1B	1d	2a]
1G	.	.	2g
.	1A	2r	2a
2F	.	2d	2a
=54	=54	=54	=54
2G	2r	2d	2b
2A	2e	2c	2cc
2F	2f	1d	2a
2G	[2d	.	2b
=55	=55	=55	=55
1E	2d]	2r	1g
.	2c	1g	.
1D	2.d	.	2r
.	.	2f	[2dd
.	4c	.	.
=56	=56	=56	=56
0r	2B	2g	2dd]
.	2A	2.a	2cc
.	2r	.	2.dd
.	.	4g	.
.	[2d	[2f	.
.	.	.	4cc
=57	=57	=57	=57
1r	2d]	2f]	4b
.	.	.	4a
.	2c	2e	2cc
2r	2d	2f	1b
[2G	[2e	[2g	.
=58	=58	=58	=58
2G]	4e]	4g]	2a
.	4d	4d	.
2F	1d	2f	2a
2G	.	2e	2b
2A	2c	2e	2cc
=59	=59	=59	=59
2F	0d	2f	2a
1G	.	2d	1b
.	.	1g	.
4F	.	.	4a
4E	.	.	4g
=60	=60	=60	=60
[0Dl	[0dl	[0fl	1b
.	.	.	[1al
=61	=61	=61	=61
00D]	00d]	00f]	00a]
=62||	=62||	=62||	=62||
*M2/1	*M2/1	*M2/1	*M2/1
*met(C|)	*met(C|)	*met(C|)	*met(C|)
!!section: Secunda pars: Quoniam confortavit
!!!OMD: Secunda pars: Quoniam confortavit
1D	1r	0r	0r
2E	2r	.	.
[2F	[2A	.	.
=63	=63	=63	=63
2F]	2A]	1r	0r
2G	2B	.	.
2A	2c	2r	.
2F	2A	[2d	.
=64	=64	=64	=64
2.G	2.B	2d]	1r
.	.	2e	.
8FL	4c	.	.
8EJ	.	.	.
2D	2d	2.f	1a
[2d	[2f	.	.
.	.	4e	.
=65	=65	=65	=65
2d]	2f]	2f	2b
2c	2e	2g	1cc
2A	2c	1a	.
2c	2d	.	2a
=66	=66	=66	=66
2B	2d	1r	2b
1A	2c	.	2cc
.	1B	2r	2dd
2G	.	2g	[2dd
=67	=67	=67	=67
2A	1A	2f	2dd]
1A	.	2e	2cc
.	2r	1f	2a
2F	[2a	.	[2cc
=68	=68	=68	=68
1G	2a]	2e	2cc]
.	2g	1d	2b
1A	2f	.	2.a
.	[2e	2c	.
.	.	.	4g
=69	=69	=69	=69
2B-i	4e]	1d	2f
.	4d	.	.
2G	1d	.	2g
1A	.	2r	1e
.	2c#i	[2a	.
=70	=70	=70	=70
1D	2.d	2a]	2d
.	.	2f	1dd
.	4c	.	.
1r	2B	2g	.
.	2A	2a	2cc
=71	=71	=71	=71
0r	1r	2d	2a
.	.	2a	2cc
.	2r	2g	1b
.	[2d	[2f	.
=72	=72	=72	=72
0r	2d]	2f]	2a
.	2c	2e	2.cc
.	2A	4c	.
.	.	4d	4b
.	2c	4e	[2a
.	.	4c	.
=73	=73	=73	=73
2r	1B	2.d	2a]
1d	.	.	2g
.	.	4e	.
.	2.A	2f	1a
2c	.	2e	.
.	4B	.	.
=74	=74	=74	=74
2A	4c	2r	1r
.	4d	.	.
2c	1e	1a	.
1B	.	.	2r
.	2d	2g	[2dd
=75	=75	=75	=75
1.A	2.e	2a	2dd]
.	.	2.cc	2cc
.	4d	.	.
.	2e	.	2a
.	.	4b	.
2F	2f	[2a	2cc
=76	=76	=76	=76
1G	0d	2a]	1b
.	.	2g	.
[1D	.	2.f	2.a
.	.	4e	4g
=77	=77	=77	=77
1D]	2r	1d	1f
.	2.A	.	.
2r	.	1c	[1e
.	4B	.	.
2A	4c	.	.
.	4d	.	.
=78	=78	=78	=78
2c	2e	2r	1e]
2c	2c	2e	.
2B	2d	[1g	1r
[2c	[2e	.	.
=79	=79	=79	=79
4c]	4e]	2g]	0r
4B	4d	.	.
2G	2B	2g	.
2A	2c	2.f	.
[2B-i	2d	.	.
.	.	4e	.
=80	=80	=80	=80
4B-]	2G	2d	1r
4A	.	.	.
2F	1d	2f	.
2G	.	2e	2r
2A	2c#i	2e	2ee
=81	=81	=81	=81
1D	1d	2d	2ff
.	.	1a	2ff
1r	2r	.	2ee
.	2d	2a	[2ff
=82	=82	=82	=82
0r	1.f	2d	4ff]
.	.	.	4ee
.	.	1a	2cc
.	.	.	2dd
.	2e	2g	2ee
=83	=83	=83	=83
1r	2d	1f	2.a
.	2d	.	.
.	.	.	4b
1A	2.c	1e	2.cc
.	4d	.	8bL
.	.	.	8aJ
=84	=84	=84	=84
2c	2e	2r	1g
2c	2c	2e	.
2B	2d	[1g	1r
[2c	[2e	.	.
=85	=85	=85	=85
4c]	4e]	2g]	1r
4B	4d	.	.
2G	2B	2g	.
2A	2c	2.f	2r
[2B-i	2d	.	[2dd
.	.	4e	.
=86	=86	=86	=86
4B-]	2G	2d	4dd]
4A	.	.	4cc
2F	2d	2f	2a
2G	2d	1e	2b
2A	2c	.	2cc
=87	=87	=87	=87
2D	4d	2f	4b
.	4c	.	4a
2F	4B	2d	1a
.	4A	.	.
1E	1B	2e	.
.	.	[2e	2g#i
=88	=88	=88	=88
1A	2A	2e]	[0a
.	1e	2c	.
2r	.	2.c	.
[2A	2c	.	.
.	.	4d	.
=89	=89	=89	=89
2A]	1c	2e	0a]
2F	.	1f	.
2.F	2r	.	.
.	[2f	4e	.
4G	.	4d	.
=90	=90	=90	=90
4A	2f]	2c	0r
4B	.	.	.
1c	2e	2g	.
.	2e	2g	.
2B	2d	2g	.
=91	=91	=91	=91
2c	2e	1a	1r
2d	2f	.	.
2B	2d	1g	2r
[2c	2e	.	[2ee
=92	=92	=92	=92
4c]	2.A	1.e	2ee]
4B	.	.	.
2.A	.	.	2cc
.	4B	.	.
.	2c	.	2.cc
4G	.	.	.
2F	2A	2f	.
.	.	.	4dd
=93	=93	=93	=93
2E	2G	2g	2ee
2D	1d	2.a	1ff
1A	.	.	.
.	.	4g	.
.	2c	2e	2ee
=94	=94	=94	=94
2r	2d	1f	2ee
2F	2A	.	2dd
2G	2B	1e	2ee
[2A	[2c	.	[2ee
=95	=95	=95	=95
4A]	4c]	2r	2ee]
4B	4d	.	.
4c	4e	2c	2ee
4A	4f	.	.
2B	2g	2d	2dd
[2A	2c	[2e	2cc
=96	=96	=96	=96
2A]	2r	4e]	1b
.	.	4f	.
2G	1d	4g	.
.	.	4e	.
1A	.	2f	2r
.	2c	[2e	[2a
=97	=97	=97	=97
1F	1A	2e]	2a]
.	.	2d	2a
2E	2B	2.e	2g
[2A	[2c	.	2e
.	.	4d	.
=98	=98	=98	=98
2A]	4c]	2c	1f
.	4B	.	.
2D	1A	2d	.
1E	.	1B	1e
.	2G#i	.	.
=99	=99	=99	=99
0r	2A	2c	2r
.	2d	1f	2a
.	1c	.	2b
.	.	2g	[2cc
=100	=100	=100	=100
0r	4A	1a	4cc]
.	4B	.	4dd
.	4c	.	4ee
.	4A	.	4cc
.	2B	2g	2dd
.	2c	2e	[2ee
=101	=101	=101	=101
2r	2d	1f	2ee]
2F	2A	.	2dd
2G	2B	1e	2.ee
[2A	[2c	.	.
.	.	.	4dd
=102	=102	=102	=102
4A]	4c]	2r	1cc
4B	4d	.	.
4c	4e	2c	.
4A	4f	.	.
2B	1g	2d	2b
2c	.	2e	[2ee
=103	=103	=103	=103
2d	2f	2f	4ee]
.	.	.	4dd
2B	2d	2g	1dd
2.A	1e	1a	.
.	.	.	2cc#i
4G	.	.	.
=104	=104	=104	=104
2F	1d	2r	1dd
2G	.	1g	.
1D	2r	.	2r
.	2d	2f	[2dd
=105	=105	=105	=105
0r	2e	2g	2dd]
.	2.f	2.a	2cc
.	.	.	2.dd
.	4e	4g	.
.	[2d	[2f	.
.	.	.	4cc
=106	=106	=106	=106
0r	2d]	2f]	4b
.	.	.	4a
.	2c	2e	2cc
.	2d	2f	2b
.	2c	2e	[2a
=107	=107	=107	=107
2r	1B	1d	2a]
1G	.	.	2g
.	1A	2r	2a
2F	.	2d	2a
=108	=108	=108	=108
2G	2r	2d	2b
2A	2e	2c	2cc
2F	2f	1d	2a
2G	[2d	.	2b
=109	=109	=109	=109
1E	2d]	2r	1g
.	2c#i	1g	.
1D	2d	.	2r
.	2d	2f	[2dd
=110	=110	=110	=110
0r	2e	2g	2dd]
.	2.f	2.a	2cc
.	.	.	2.dd
.	4e	4g	.
.	[2d	[2f	.
.	.	.	4cc
=111	=111	=111	=111
0r	2d]	2f]	4b
.	.	.	4a
.	2c	2e	2cc
.	2d	2f	2b
.	2c	2e	[2a
=112	=112	=112	=112
2r	1B	1d	2a]
2d	.	.	2g#i
2e	2A	2r	2a
[2f	[2d	2a	[2ff
=113	=113	=113	=113
4f]	2d]	2b	2ff]
4e	.	.	.
2c	2e	2cc	2ee
1d	2.f	2.a	2dd
.	.	.	[2ff
.	4g	4b	.
=114	=114	=114	=114
2r	1a	1cc	4ff]
.	.	.	4ee
2A	.	.	2cc
2B	2g	2r	2dd
[2c	2e	[2cc	[2ee
=115	=115	=115	=115
4c]	2.g	2cc]	4ee]
4B	.	.	4dd
2G	.	2b	1dd
.	4f	.	.
1A	1e	2.a	.
.	.	.	2cc#i
.	.	4g	.
=116	=116	=116	=116
2r	[0dl	2.f	1dd
2F	.	.	.
.	.	4e	.
2G	.	2.d	2r
[2B-i	.	.	[2dd
.	.	4e	.
=117	=117	=117	=117
4B-]	0d_	4f	2dd]
4A	.	4g	.
2F	.	2.a	2cc
1G	.	.	1b
.	.	4g	.
.	.	[2g	.
=118	=118	=118	=118
[0Dl	0d_	2g]	[0al
.	.	4f	.
.	.	4e	.
.	.	[1fl	.
=119	=119	=119	=119
00D]	00d]	00f]	00a]
==	==	==	==
*-	*-	*-	*-
!!!system-decoration: [*]
!!!RDF**kern: i = editorial accidental
!!!RDF**kern: l = terminal long
!!!ENC: Benjamin Ory
!!!END: 2025/1/6
!!!EED: Benjamin Ory
!!!EEV: 2025/02/18
!!!YEC: Copyright 2025 Benjamin Ory, All Rights Reserved
!!!ONB: Translated from MusicXML on 2025/02/18